!!!COM:	Compere, Loyset
!!!CDT:	~1445///-1518/08/16
!!!OTL:	Un franc archier a la guerre s'en va
!!!AGN:	Song; Chanson
!!!SCT:	Com3043
!!!SCA:	Com3043
!!!voices:	4
**kern	**kern	**kern	**kern
*staff4	*staff3	*staff2	*staff1
*Ivox	*Ivox	*Ivox	*Ivox
*I"Bassus	*I"Tenor	*I"Altus	*I"Superius
*I'B	*I'T	*I'A	*I'S
*clefF4	*clefGv2	*clefGv2	*clefG2
*k[b-]	*k[b-]	*k[b-e-]	*k[b-]
*M2/1	*M2/1	*M2/1	*M2/1
*met(C|)	*met(C|)	*met(C|)	*met(C|)
=1-	=1-	=1-	=1-
1.GG	1r	0r	0r
.	1G	.	.
2AA	.	.	.
=2	=2	=2	=2
1BB-	1F	0r	0r
1C	1E	.	.
=3	=3	=3	=3
1D	1D	0r	0r
2E	1A	.	.
2F	.	.	.
=4	=4	=4	=4
2D	1B-	0r	0r
2G	.	.	.
2D	1A	.	.
4C	.	.	.
4D	.	.	.
=5	=5	=5	=5
4E-i	2G	0r	0r
4D	.	.	.
4C	1G	.	.
4BB-	.	.	.
1AA	.	.	.
.	2F#i	.	.
=6	=6	=6	=6
0GG	1G	0r	1r
.	1B-	.	1g
=7	=7	=7	=7
1D	2A	1r	1f
.	2F	.	.
1C	2.G	1c	1e
.	4A	.	.
=8	=8	=8	=8
1G	2.B-	1B-	1d
.	4c	.	.
1D	1d	1A	1a
=9	=9	=9	=9
2GG	2D	1G	1b-
2G	2E	.	.
2F	2D	1d	1a
4D	2F	.	.
4F	.	.	.
=10	=10	=10	=10
1C	2G	1e-	2g
.	2A	.	1g
2BB-	2B-	1d	.
4C	[2A	.	2f
4D	.	.	.
=11	=11	=11	=11
2E-	4A]	2c	1g
.	4G	.	.
2C	1G	1c	.
1D	.	.	1r
.	2F	2Bni	.
=12	=12	=12	=12
0C	1G	0c	0r
.	2r	.	.
.	2G	.	.
=13	=13	=13	=13
1r	1A	0r	0r
1G	1B-	.	.
=14	=14	=14	=14
1A	1A	0r	1r
1B-	2r	.	1g
.	2G	.	.
=15	=15	=15	=15
1A	2.c	0r	1a
.	4B-	.	.
2r	2G	.	1b-
2G	2G	.	.
=16	=16	=16	=16
2.c	2F	0r	1a
.	2F	.	.
8B-L	.	.	.
8AJ	.	.	.
2G	2G	.	2r
2G	2G	.	2g
=17	=17	=17	=17
2F	1A	1r	2.cc
2F	.	.	.
.	.	.	8b-L
.	.	.	8aJ
2E	2r	1c	2g
2E	2G	.	2g
=18	=18	=18	=18
1D	2A	1d	2f
.	2B-	.	2f
1C	1c	1e-	2g
.	.	.	2g
=19	=19	=19	=19
2r	2.F	1d	[0a
2D	.	.	.
.	8EL	.	.
.	8DJ	.	.
1AA	2E	2r	.
.	[2F	2c	.
=20	=20	=20	=20
2.D	4F]	2.f	0a]
.	4G	.	.
.	2.A	.	.
8CL	.	8e-L	.
8BB-J	.	8dJ	.
2AA	.	2c	.
.	4B-	.	.
2AA	2c	2c	.
=21	=21	=21	=21
2GG	4B-	2B-	0r
.	4G	.	.
2BB-	2.G	2B-	.
1AA	.	2c	.
.	4F#i	.	.
.	4F#i	2c	.
.	4E	.	.
=22	=22	=22	=22
1GG	2G	[0d	0r
.	1B-	.	.
1r	.	.	.
.	4A	.	.
.	4G	.	.
=23	=23	=23	=23
1G	2B-	0d]	0r
.	2G	.	.
1F	1D	.	.
=24	=24	=24	=24
1E	2r	0r	0r
.	2G	.	.
2D	1F	.	.
[2D	.	.	.
=25	=25	=25	=25
2D]	1E	0r	1g
2C	.	.	.
1D	1D	.	1f
=26	=26	=26	=26
1AA	1r	1c	1e
2D	2r	1B-	1d
[2G	2G	.	.
=27	=27	=27	=27
2G]	1D	1A	0r
2F	.	.	.
1G	[1d	1G	.
=28	=28	=28	=28
[0D	2d]	0r	2r
.	2d	.	2a
.	2d	.	2.a
.	2d	.	.
.	.	.	4g
=29	=29	=29	=29
1D]	1d	2r	2.f
.	.	2d	.
.	.	.	4e
[1G	[1B-	2.d	1d
.	.	4c	.
=30	=30	=30	=30
2G]	2B-]	2.B-	1e
2A	2c	.	.
.	.	4A	.
2B-	[1d	1G	2d
2G	.	.	[2g
=31	=31	=31	=31
1D	1d]	1A	2g]
.	.	.	2f#i
2E-i	2B-	2G	1g
2C	[2e-	[2c	.
=32	=32	=32	=32
1G	2e-]	2c]	1r
.	2d	2B-	.
1C	2e-i	1c	1g
.	[2c	.	.
=33	=33	=33	=33
1F	2c]	0r	1a
.	4B-	.	.
.	4A	.	.
2E-i	1G	.	1b-
2G	.	.	.
=34	=34	=34	=34
2F	1A	0r	1a
2D	.	.	.
1G	2B-	.	1r
.	[2G	.	.
=35	=35	=35	=35
1A	2G]	1c	1r
.	2F#i	.	.
1B-	1G	1d	2r
.	.	.	2g
=36	=36	=36	=36
1A	2r	1e-	2a
.	2c	.	2a
1D	1d	1d	2b-
.	.	.	2b-
=37	=37	=37	=37
2C	1e	2r	1cc
2E	.	2c	.
2.F	1d	2d	1r
.	.	2d	.
4A	.	.	.
=38	=38	=38	=38
2G	2r	2e-	1b-
2G	2G	2e-	.
2.F	2A	1f	2a
.	2A	.	2cc
4E	.	.	.
=39	=39	=39	=39
1D	2B-	0r	4b-
.	.	.	4a
.	2B-	.	4g
.	.	.	4f
2C	1c	.	2e
[2F	.	.	[2a
=40	=40	=40	=40
2F]	2d	0r	4a]
.	.	.	4g
2G	2B-	.	1g
2D	2.A	.	.
2F	.	.	2f#i
.	4B-	.	.
=41	=41	=41	=41
2E-i	2.c	1e-	2.g
2C	.	.	.
.	4A	.	4a
2G	2B-	2d	2b-
2D	2d	2f	2a
=42	=42	=42	=42
2E-i	2G	4e-	2g
.	.	4d	.
4F	2A	4c	2.cc
4G	.	4B-	.
2A	2F	2A	.
.	.	.	4b-
2F	2D	[2d	2a
=43	=43	=43	=43
2G	2r	4d]	2b-
.	.	4c	.
2E	1G	1c	2g
1D	.	.	2.a
.	2F	2Bni	.
.	.	.	8gL
.	.	.	8fJ
=44	=44	=44	=44
2.C	1.G	0c	2.e
4D	.	.	4f
2E	.	.	2g
[2F	2F	.	[2a
=45	=45	=45	=45
2F]	2A	1d	2a]
2G	1G	.	2b-
2C	.	2e-	2cc
4F	4A	2f	[2a
4G	4B-	.	.
=46	=46	=46	=46
2A	2c	2e-	2a]
2D	2d	2.d	1dd
2G	2B-	.	.
.	.	4e-	.
2A	2c	2f	2cc
=47	=47	=47	=47
2G	0d	2g	2b-
4F	.	2a	4a
4E	.	.	4g
2G	.	2g	2b-
2D	.	2f	[2a
=48	=48	=48	=48
1E-	1G	2e-	4a]
.	.	.	4g
.	.	2c	1g
1D	1A	1d	.
.	.	.	2f#i
=49	=49	=49	=49
0GGl	0Gl	0dl	0gl
==	==	==	==
*-	*-	*-	*-
!!!RDF**kern: l=long note in original notation
!!!RDF**kern: i=editorial accidental
!!!ENC:	Megan K. Eagen 2013/11/30
!!!END:	2013/11/30/
!!!EED:	Jesse Rodin
!!!EEV:	2014/02/23/
!!!ONB:	Translated from MusicXML and edited on 2014/02/23/ by Craig Sapp
!!muse2ps: C^@{COM}^i2I150v85,85,85,150Q16
